src/assets/img/unfullscreen.svg

<?xml version="1.0" encoding="UTF-8" standalone="no"?>
<svg width="16px" height="16px" viewBox="0 0 16 16" version="1.1" xmlns="http://www.w3.org/2000/svg" xmlns:xlink="http://www.w3.org/1999/xlink">
    <!-- Generator: Sketch 46.2 (44496) - http://www.bohemiancoding.com/sketch -->
    <title>收起全屏</title>
    <desc>Created with Sketch.</desc>
    <defs></defs>
    <g id="Page-1" stroke="none" stroke-width="1" fill="none" fill-rule="evenodd">
        <g id="Artboard" transform="translate(-33.000000, -27.000000)" fill="#666666">
            <g id="收起全屏" transform="translate(33.000000, 27.000000)">
                <path d="M6,10.7038584 L6,13.5 C6,13.7761424 6.22385763,14 6.5,14 C6.77614237,14 7,13.7761424 7,13.5 L7,9.5 C7,9.22385763 6.77614237,9 6.5,9 L2.5,9 C2.22385763,9 2,9.22385763 2,9.5 C2,9.77614237 2.22385763,10 2.5,10 L5.28964798,10 L2.14626424,13.1466291 C1.95110287,13.3419919 1.95126621,13.6585744 2.14662907,13.8537358 C2.34199194,14.0488971 2.65857439,14.0487338 2.85373576,13.8533709 L6,10.7038584 Z M10,5.29289322 L10,2.5 C10,2.22385763 9.77614237,2 9.5,2 C9.22385763,2 9,2.22385763 9,2.5 L9,6.5 C9,6.77614237 9.22385763,7 9.5,7 L13.5,7 C13.7761424,7 14,6.77614237 14,6.5 C14,6.22385763 13.7761424,6 13.5,6 L10.7071068,6 L13.8535534,2.85355339 C14.0488155,2.65829124 14.0488155,2.34170876 13.8535534,2.14644661 C13.6582912,1.95118446 13.3417088,1.95118446 13.1464466,2.14644661 L10,5.29289322 Z M13,9.5 C13,9.22385763 13.2238576,9 13.5,9 C13.7761424,9 14,9.22385763 14,9.5 L14,13.5 C14,13.7761424 13.7761424,14 13.5,14 L9.5,14 C9.22385763,14 9,13.7761424 9,13.5 C9,13.2238576 9.22385763,13 9.5,13 L13,13 L13,9.5 Z M3,6.5 C3,6.77614237 2.77614237,7 2.5,7 C2.22385763,7 2,6.77614237 2,6.5 L2,2.5 C2,2.22385763 2.22385763,2 2.5,2 L6.5,2 C6.77614237,2 7,2.22385763 7,2.5 C7,2.77614237 6.77614237,3 6.5,3 L3,3 L3,6.5 Z"></path>
            </g>
        </g>
    </g>
</svg>

<svg width="16" height="16" viewBox="0 0 16 16" xmlns="http://www.w3.org/2000/svg"><path d="M6 10.704V13.5a.5.5 0 1 0 1 0v-4a.5.5 0 0 0-.5-.5h-4a.5.5 0 0 0 0 1h2.79l-3.144 3.147a.5.5 0 1 0 .708.706L6 10.703zm4-5.411V2.5a.5.5 0 0 0-1 0v4a.5.5 0 0 0 .5.5h4a.5.5 0 1 0 0-1h-2.793l3.147-3.146a.5.5 0 0 0-.708-.708L10 5.293zM13 9.5a.5.5 0 1 1 1 0v4a.5.5 0 0 1-.5.5h-4a.5.5 0 1 1 0-1H13V9.5zm-10-3a.5.5 0 0 1-1 0v-4a.5.5 0 0 1 .5-.5h4a.5.5 0 0 1 0 1H3v3.5z" fill="#666" fill-rule="evenodd"/></svg>
